packages/tokens/icons/thumbsDownFilled/size16Px.svg

<svg viewBox="0 0 16 16" fill="none" xmlns="http://www.w3.org/2000/svg" width="1em" height="1em"><path fill-rule="evenodd" clip-rule="evenodd" d="M13.5 3.50006C13.5 3.76742 13.43 4.01844 13.3074 4.23581C13.7239 4.50234 14 4.96902 14 5.50019C14 5.76748 13.9301 6.01843 13.8076 6.23578C14.224 6.50232 14.5 6.96895 14.5 7.50005C14.5 7.76738 14.4301 8.01837 14.3075 8.23573C14.724 8.50227 15 8.96893 15 9.50007C15 10.3285 14.3285 11.0001 13.5 11.0001H10.1099L10.2407 11.6543C10.4267 12.5841 10.2323 13.553 9.70727 14.3405C9.43399 14.7504 8.97214 15 8.47707 15C7.66131 15 7.00002 14.3387 7.00003 13.5229L7.00004 12.5766L5.86723 10.7378C5.77621 10.5901 5.61507 10.5001 5.44152 10.5001L4.8662 10.5001C4.69329 10.799 4.37013 11.0001 4 11.0001H2C1.44772 11.0001 1 10.5523 1 10.0001L1 3.00005C1 2.44777 1.44772 2.00005 2 2.00005H4C4.45218 2.00005 4.83426 2.30017 4.95791 2.71208L5.8541 2.26398C6.20124 2.09041 6.58402 2.00005 6.97214 2.00005H10.4952L10.5 2.00003H12C12.8284 2.00003 13.5 2.67161 13.5 3.50003L13.5 3.50005L13.5 3.50006ZM5 9.50005H5.5L5.50079 9.50124C5.48108 9.50046 5.46132 9.50007 5.44149 9.50007L5 9.50008V9.50005Z" fill="currentColor"/></svg>

<svg xmlns="http://www.w3.org/2000/svg" fill="none" viewBox="0 0 16 16" width="1em" height="1em"><path fill="currentColor" fill-rule="evenodd" d="M13.5 3.5c0 .267-.07.518-.193.736a1.499 1.499 0 0 1 .5 2 1.499 1.499 0 0 1 .5 2A1.499 1.499 0 0 1 13.5 11h-3.39l.13.654a3.584 3.584 0 0 1-.533 2.687A1.477 1.477 0 0 1 7 13.523v-.946l-1.133-1.84a.5.5 0 0 0-.425-.237h-.576A1 1 0 0 1 4 11H2a1 1 0 0 1-1-1V3a1 1 0 0 1 1-1h2a1 1 0 0 1 .958.712l.896-.448A2.5 2.5 0 0 1 6.972 2H12a1.5 1.5 0 0 1 1.5 1.5ZM5 9.5h.5v.001a1.5 1.5 0 0 0-.059 0H5Z" clip-rule="evenodd"/></svg>
